**kern
*staff1
*tb24
=1-
*clefG2
*k[b-e-a-]
*M4/4
1r
.
.
.
.
.
.
.
.
.
.
.
.
.
.
.
.
.
.
.
.
.
.
.
=2
1r
.
.
.
.
.
.
.
.
.
.
.
.
.
.
.
.
.
.
.
.
.
.
.
=3
1r
.
.
.
.
.
.
.
.
.
.
.
.
.
.
.
.
.
.
.
.
.
.
.
=4
!!linebreak:original
1r
.
.
.
.
.
.
.
.
.
.
.
.
.
.
.
.
.
.
.
.
.
.
.
=5
1r
.
.
.
.
.
.
.
.
.
.
.
.
.
.
.
.
.
.
.
.
.
.
.
=6
2r
.
.
.
.
.
.
.
.
.
.
.
[8b-/
.
.
8b-\L]
.
.
(8cc\J
.
.
8dd\)
.
.
=7
!!linebreak:original
4ee-\
.
.
.
.
.
4g/
.
.
.
.
.
4a-/
.
.
.
.
.
4d/
.
.
.
.
.
=8
4e-/
.
.
.
.
.
2r
.
.
.
.
.
.
.
.
.
.
.
4e-/
.
.
.
.
.
=9
4a-/
.
.
.
.
.
4a-/
.
.
.
.
.
4a-/
.
.
.
.
.
4a-/
.
.
.
.
.
=10
!!linebreak:original
4a-/
.
.
.
.
.
8ff\L
.
.
8ee-\J
.
.
4ee-\
.
.
.
.
.
4dd\
.
.
.
.
.
=11
4ee-\
.
.
.
.
.
12b-\L
.
12cc\J
.
12b-/
.
4ee-\
.
.
.
.
.
4g/
.
.
.
.
.
=12
4b-/
.
.
.
.
.
4en/
.
.
.
.
.
4f/
.
.
.
.
.
4r
.
.
.
.
.
=13
!!linebreak:original
4cc\
.
.
.
.
.
8b-/
.
.
8a-/
.
.
8g/
.
.
8g/
.
.
8b-/
.
.
8g/
.
.
=14
(4f/
.
.
.
.
.
4en/)
.
.
.
.
.
4f/
.
.
.
.
.
4r
.
.
.
.
.
=15
4r
.
.
.
.
.
4f/
.
.
.
.
.
4.cc\
.
.
.
.
.
.
.
.
8cc\
.
.
=16
!!linebreak:original
8cc\
.
.
8cc\
.
.
8dd\
.
.
8bn\
.
.
4cc\
.
.
.
.
.
4g/
.
.
.
.
.
=17
4r
.
.
.
.
.
4g/
.
.
.
.
.
4.ee-\
.
.
.
.
.
.
.
.
8dd\
.
.
=18
8cc\
.
.
8cc\
.
.
8dd\
.
.
8bn\
.
.
4cc\
.
.
.
.
.
4r
.
.
.
.
.
=19
!!linebreak:original
4r
.
.
.
.
.
4g/
.
.
.
.
.
4ee-\
.
.
.
.
.
8cc\L
.
.
8an\J
.
.
=20
8f/
.
.
8f/
.
.
8g/
.
.
8e-/
.
.
4e-/
.
.
.
.
.
4d/
.
.
.
.
.
=21
4r
.
.
.
.
.
4f/
.
.
.
.
.
4ff\
.
.
.
.
.
8dd\L
.
.
8bn\J
.
.
=22
!!linebreak:original
8g/
.
.
8g/
.
.
8a-/
.
.
8f/
.
.
(4f/
.
.
.
.
.
4e-/)
.
.
.
.
.
=23
4r
.
.
.
.
.
4g/
.
.
.
.
.
4.ee-\
.
.
.
.
.
.
.
.
8ee-\
.
.
=24
8ee-\
.
.
8ee-\
.
.
8ee-\
.
.
8ee-\
.
.
4ee-\
.
.
.
.
.
4g/
.
.
.
.
.
=25
!!linebreak:original
4r
.
.
.
.
.
4g/
.
.
.
.
.
4.ee-\
.
.
.
.
.
.
.
.
8ee-\
.
.
=26
8ee-\
.
.
8g/
.
.
8a-/
.
.
8d/
.
.
4e-/
.
.
.
.
.
4r
.
.
.
.
.
=27
2r
.
.
.
.
.
.
.
.
.
.
.
4b-\
.
.
.
.
.
12b-\L
.
12cc\J
.
12b-\
.
=28
!!linebreak:original
2ee-\
.
.
.
.
.
.
.
.
.
.
.
4a-/
.
.
.
.
.
4r
.
.
.
.
.
=29
4a-/
.
.
.
.
.
12a-/L
.
12g/J
.
12f/
.
(4cc\
.
.
.
.
.
8b-/L
.
.
8d/J)
.
.
=30
!!linebreak:original
4e-/
.
.
.
.
.
4r
.
.
.
.
.
2r
.
.
.
.
.
.
.
.
.
.
.
=31
1r
.
.
.
.
.
.
.
.
.
.
.
.
.
.
.
.
.
.
.
.
.
.
.
=32
1r
.
.
.
.
.
.
.
.
.
.
.
.
.
.
.
.
.
.
.
.
.
.
.
==
*-
